X: 98
T: The flaxdresser
C: anon.
O: Ireland
B: Francis O'Neill: "The Dance Music of Ireland" (1907) no. 98
R: Double jig
Z: Transcribed by Frank Nordberg - http://www.musicaviva.com
F: http://www.musicaviva.com/abc/tunes/ireland/oneill-1001/oneill-1001-009
8.abc
M: 6/8
L: 1/8
K: G
(d/c/)|BAG AGE|DGA BAG|BAG dcB|BAA AGA|BAG AGE|DGA BAG|Bdg dBG|AGG G2:|
|:B|GBd efg|dBG AGE|GBd efg|fdd def|gfe dcB|AGA BGE|DcB AGA|BGG G2:|
|:(B/c/|d2)(e/d/ g)fe|dBG AGE|DEG GAB|BAA A2 (B/c/|d2)(e/f/ g)fe|dBG AGE|
DcB AGA|BGG G2:|
W:
W:
W: From Musica Viva - http://www.musicaviva.com
W: the Internet center for free sheet music downloads.


